public/search.svg

<svg xmlns="http://www.w3.org/2000/svg"  viewBox="0 0 30 30" width="30px" height="30px"><path d="M 13 3 C 7.4889971 3 3 7.4889971 3 13 C 3 18.511003 7.4889971 23 13 23 C 15.396508 23 17.597385 22.148986 19.322266 20.736328 L 25.292969 26.707031 A 1.0001 1.0001 0 1 0 26.707031 25.292969 L 20.736328 19.322266 C 22.148986 17.597385 23 15.396508 23 13 C 23 7.4889971 18.511003 3 13 3 z M 13 5 C 17.430123 5 21 8.5698774 21 13 C 21 17.430123 17.430123 21 13 21 C 8.5698774 21 5 17.430123 5 13 C 5 8.5698774 8.5698774 5 13 5 z"/></svg>

<svg xmlns="http://www.w3.org/2000/svg" xmlns:xlink="http://www.w3.org/1999/xlink" viewBox="0,0,256,256" width="30px" height="30px" fill-rule="nonzero"><g fill="#a7a7a7" fill-rule="nonzero" stroke="none" stroke-width="1" stroke-linecap="butt" stroke-linejoin="miter" stroke-miterlimit="10" stroke-dasharray="" stroke-dashoffset="0" font-family="none" font-weight="none" font-size="none" text-anchor="none" style="mix-blend-mode: normal"><g transform="scale(8.53333,8.53333)"><path d="M13,3c-5.511,0 -10,4.489 -10,10c0,5.511 4.489,10 10,10c2.39651,0 4.59738,-0.85101 6.32227,-2.26367l5.9707,5.9707c0.25082,0.26124 0.62327,0.36648 0.97371,0.27512c0.35044,-0.09136 0.62411,-0.36503 0.71547,-0.71547c0.09136,-0.35044 -0.01388,-0.72289 -0.27512,-0.97371l-5.9707,-5.9707c1.41266,-1.72488 2.26367,-3.92576 2.26367,-6.32227c0,-5.511 -4.489,-10 -10,-10zM13,5c4.43012,0 8,3.56988 8,8c0,4.43012 -3.56988,8 -8,8c-4.43012,0 -8,-3.56988 -8,-8c0,-4.43012 3.56988,-8 8,-8z"></path></g></g></svg>
